public/frontend/images/icons/nav/blog.svg

<svg width="24" height="24" viewBox="0 0 24 24" fill="none" xmlns="http://www.w3.org/2000/svg">
<path d="M5 16C5 15.4477 5.44772 15 6 15H8C8.55229 15 9 15.4477 9 16C9 16.5523 8.55229 17 8 17H6C5.44772 17 5 16.5523 5 16Z" fill="url(#paint0_linear_103_134)"/>
<path d="M11 15C10.4477 15 10 15.4477 10 16C10 16.5523 10.4477 17 11 17H12C12.5523 17 13 16.5523 13 16C13 15.4477 12.5523 15 12 15H11Z" fill="url(#paint1_linear_103_134)"/>
<path fill-rule="evenodd" clip-rule="evenodd" d="M6.788 3C5.96948 2.99999 5.29393 2.99998 4.74393 3.04565C4.17258 3.0931 3.64774 3.19496 3.1561 3.45035C2.42553 3.82985 1.82985 4.42553 1.45035 5.1561C1.19496 5.64774 1.0931 6.17258 1.04565 6.74393C0.999977 7.29393 0.999988 7.96946 1 8.78798V15.212C0.999988 16.0305 0.999977 16.7061 1.04565 17.2561C1.0931 17.8274 1.19496 18.3523 1.45035 18.8439C1.82985 19.5745 2.42553 20.1702 3.1561 20.5497C3.64774 20.805 4.17258 20.9069 4.74393 20.9544C5.29394 21 5.96949 21 6.78803 21H17.212C18.0305 21 18.7061 21 19.2561 20.9544C19.8274 20.9069 20.3523 20.805 20.8439 20.5497C21.5745 20.1702 22.1702 19.5745 22.5497 18.8439C22.805 18.3523 22.9069 17.8274 22.9544 17.2561C23 16.7061 23 16.0305 23 15.212V8.78803C23 7.96949 23 7.29394 22.9544 6.74393C22.9069 6.17258 22.805 5.64774 22.5497 5.1561C22.1702 4.42553 21.5745 3.82985 20.8439 3.45035C20.3523 3.19496 19.8274 3.0931 19.2561 3.04565C18.7061 2.99998 18.0305 2.99999 17.212 3H6.788ZM4.07805 5.22517C4.23663 5.1428 4.46402 5.07578 4.90945 5.03879C5.36686 5.00081 5.95898 5 6.83 5H17.17C18.041 5 18.6331 5.00081 19.0906 5.03879C19.536 5.07578 19.7634 5.1428 19.922 5.22517C20.2872 5.41493 20.5851 5.71277 20.7748 6.07805C20.8572 6.23663 20.9242 6.46402 20.9612 6.90945C20.9857 7.20418 20.9947 7.55484 20.9981 8H3.00194C3.00528 7.55484 3.01431 7.20418 3.03879 6.90945C3.07578 6.46402 3.1428 6.23663 3.22517 6.07805C3.41493 5.71277 3.71277 5.41493 4.07805 5.22517ZM3 10V15.17C3 16.041 3.00081 16.6331 3.03879 17.0906C3.07578 17.536 3.1428 17.7634 3.22517 17.922C3.41493 18.2872 3.71277 18.5851 4.07805 18.7748C4.23663 18.8572 4.46402 18.9242 4.90945 18.9612C5.36686 18.9992 5.95898 19 6.83 19H17.17C18.041 19 18.6331 18.9992 19.0906 18.9612C19.536 18.9242 19.7634 18.8572 19.922 18.7748C20.2872 18.5851 20.5851 18.2872 20.7748 17.922C20.8572 17.7634 20.9242 17.536 20.9612 17.0906C20.9992 16.6331 21 16.041 21 15.17V10H3Z" fill="url(#paint2_linear_103_134)"/>
<defs>
<linearGradient id="paint0_linear_103_134" x1="12" y1="3" x2="12" y2="21" gradientUnits="userSpaceOnUse">
<stop offset="0.171875" stop-color="white"/>
<stop offset="0.520833" stop-color="#F9E2E2"/>
<stop offset="0.84375" stop-color="white"/>
</linearGradient>
<linearGradient id="paint1_linear_103_134" x1="12" y1="3" x2="12" y2="21" gradientUnits="userSpaceOnUse">
<stop offset="0.171875" stop-color="white"/>
<stop offset="0.520833" stop-color="#F9E2E2"/>
<stop offset="0.84375" stop-color="white"/>
</linearGradient>
<linearGradient id="paint2_linear_103_134" x1="12" y1="3" x2="12" y2="21" gradientUnits="userSpaceOnUse">
<stop offset="0.171875" stop-color="white"/>
<stop offset="0.520833" stop-color="#F9E2E2"/>
<stop offset="0.84375" stop-color="white"/>
</linearGradient>
</defs>
</svg>

<svg xmlns="http://www.w3.org/2000/svg" width="24" height="24" fill="none"><path fill="url(#a)" d="M5 16a1 1 0 0 1 1-1h2a1 1 0 1 1 0 2H6a1 1 0 0 1-1-1Z"/><path fill="url(#b)" d="M11 15a1 1 0 1 0 0 2h1a1 1 0 1 0 0-2h-1Z"/><path fill="url(#c)" fill-rule="evenodd" d="M6.788 3c-.819 0-1.494 0-2.044.046-.571.047-1.096.149-1.588.404A4 4 0 0 0 1.45 5.156c-.255.492-.357 1.017-.404 1.588C1 7.294 1 7.969 1 8.788v6.424c0 .819 0 1.494.046 2.044.047.571.149 1.096.404 1.588a4 4 0 0 0 1.706 1.706c.492.255 1.017.357 1.588.404.55.046 1.225.046 2.044.046h10.424c.819 0 1.494 0 2.044-.046.571-.047 1.096-.149 1.588-.404a4 4 0 0 0 1.706-1.706c.255-.492.357-1.017.404-1.588.046-.55.046-1.226.046-2.044V8.788c0-.819 0-1.494-.046-2.044-.047-.571-.149-1.096-.404-1.588a4 4 0 0 0-1.706-1.706c-.492-.255-1.017-.357-1.588-.404C18.706 3 18.03 3 17.212 3H6.788Zm-2.71 2.225c.159-.082.386-.15.831-.186C5.367 5 5.96 5 6.83 5h10.34c.871 0 1.463 0 1.92.039.446.037.673.104.832.186a2 2 0 0 1 .853.853c.082.159.15.386.186.831.025.295.034.646.037 1.091H3.002c.003-.445.012-.796.037-1.09.037-.446.104-.673.186-.832a2 2 0 0 1 .853-.853ZM3 10v5.17c0 .871 0 1.463.039 1.92.037.446.104.673.186.832a2 2 0 0 0 .853.853c.159.082.386.15.831.186C5.367 19 5.96 19 6.83 19h10.34c.871 0 1.463 0 1.92-.039.446-.037.673-.104.832-.186a2 2 0 0 0 .853-.853c.082-.159.15-.386.186-.831.038-.458.039-1.05.039-1.921V10H3Z" clip-rule="evenodd"/><defs><linearGradient id="a" x1="12" x2="12" y1="3" y2="21" gradientUnits="userSpaceOnUse"><stop offset=".172" stop-color="#fff"/><stop offset=".521" stop-color="#F9E2E2"/><stop offset=".844" stop-color="#fff"/></linearGradient><linearGradient id="b" x1="12" x2="12" y1="3" y2="21" gradientUnits="userSpaceOnUse"><stop offset=".172" stop-color="#fff"/><stop offset=".521" stop-color="#F9E2E2"/><stop offset=".844" stop-color="#fff"/></linearGradient><linearGradient id="c" x1="12" x2="12" y1="3" y2="21" gradientUnits="userSpaceOnUse"><stop offset=".172" stop-color="#fff"/><stop offset=".521" stop-color="#F9E2E2"/><stop offset=".844" stop-color="#fff"/></linearGradient></defs></svg>
